X:1
T:Hiccup  "http://freespace.virgin.net/michael.clarke2/index.html"
M:C|
L:1/8
Q:80
C:R. Mathieson
S:Hornpipe
K:HP
|: a | \
{fg}f{g}e/4f3/4{g}d{g}e3/4f/4 | \
{a}g3/4f/4{g}e3/4d/4{gcd}c{e}A | \
{Gdc}d{g}A3/4d/4{g}f3/4d/4{g}e3/4f/4 |
{a}g3/4f/4{g}e3/4d/4{gcd}ca | | \
{fg}f{g}e/4f3/4{g}d{g}e3/4f/4 | \
{a}g3/4f/4{g}e3/4d/4{gcd}c{e}A |
{Gdc}d{g}A3/4d/4{g}f3/4a/4g3/4e/4 | \
{g}f3/4d/4{c}d3/4e/4{Gdc}d :: \
{g}f3/4g/4 |
a3/4f/4{g}d/4f3/4{g}A3/4d/4{g}f3/4a/4 | \
g3/4f/4{g}e3/4d/4{gcd}c{e}A | \
{Gdc}d{g}A3/4d/4{g}f3/4d/4{g}e3/4f/4 |
{a}g3/4f/4{g}e3/4d/4{gcd}c{g}f3/4g/4 | | \
a3/4f/4{g}d/4f3/4{g}A3/4d/4{g}f3/4a/4 | \
g3/4f/4{g}e3/4d/4{gcd}c{e}A |
{g}((3B/2c/2d/2){g}A3/4d/4{g}f3/4a/4g3/4e/4 | \
{g}f3/4d/4{c}d3/4e/4{Gdc}d :: \
{g}f3/4g/4 |
a3/4f/4d/4f3/4{aGd}G{g}f3/4g/4 | \
a3/4f/4{g}d3/4f/4{gAGAG}A{g}e3/4f/4 | \
{a}g3/4e/4{g}c/4e3/4{gAGAG}A3/4e/4{g}c3/4e/4 |
{a}g3/4e/4{g}c3/4e/4{gAGAG}A{g}f3/4g/4 | | \
a3/4g/4a3/4f/4{g}d3/4f/4{g}A3/4d/4 | \
{g}f3/4A/4{g}d3/4f/4{gAd}A{g}e3/4f/4 |
{a}g3/4f/4{g}e3/4d/4{g}c3/4a/4g3/4e/4 | \
{g}f3/4d/4{c}d3/4e/4{Gdc}d :: \
{g}f3/4g/4 |
a3/4g/4{a}f3/4a/4e3/4a/4d3/4a/4 | \
e3/4f/4{a}g3/4e/4{gcd}c{g}e3/4c/4 | \
{g}A3/4a/4B3/4a/4c3/4a/4d3/4a/4 |
e3/4f/4{g}e3/4c/4{gAd}A{g}f3/4g/4 | | \
a3/4g/4{a}f3/4a/4e3/4a/4d3/4a/4 | \
e3/4f/4{a}g3/4e/4{gcd}c{g}e3/4f/4 |
{a}g3/4f/4{g}e3/4d/4{g}c3/4a/4g3/4e/4 | \
{g}f3/4d/4{c}d3/4e/4{Gdc}d :|
